X:1527
T:Black Rogue, The
R:jig
D:Tommy Keane and Jacqueline McCarthy: Wind among the Reeds
Z:id:hn-jig-149
M:6/8
K:D
d|cAA BAG|cAA A2d|cAA BAG|AFD D2d|cAA BAG|cAA AFD|~G3 BAG|AFD D2:|
|:e|~f3 gfg|afd cBA|faf ~g3|afd dfg|a2f gfe|fed efd|cAA BAG|AFD D2:|
"Version 2:"
K:Dmix
d|cAA BAG|cAA A2d|cAA BAG|AFD D2d|cAA BAG|cAA AFD|GFG BAB|AFD D2:|
|:e|~f3 gfg|afd cAA|~f3 ~g3|afd dfg|afa geg|fdf e2d|cBA BAG|AFD D2:|


